gtk-icons/Papirus-GTK/32x32/apps/kodi.svg

<?xml version="1.0" encoding="UTF-8" standalone="no"?>
<!-- Created with Inkscape (http://www.inkscape.org/) -->

<svg
   xmlns:dc="http://purl.org/dc/elements/1.1/"
   xmlns:cc="http://creativecommons.org/ns#"
   xmlns:rdf="http://www.w3.org/1999/02/22-rdf-syntax-ns#"
   xmlns:svg="http://www.w3.org/2000/svg"
   xmlns="http://www.w3.org/2000/svg"
   xmlns:sodipodi="http://sodipodi.sourceforge.net/DTD/sodipodi-0.dtd"
   xmlns:inkscape="http://www.inkscape.org/namespaces/inkscape"
   width="32"
   height="32"
   viewBox="0 0 32.000001 32.000001"
   id="svg4163"
   version="1.1"
   inkscape:version="0.91 r"
   sodipodi:docname="kodi.svg">
  <defs
     id="defs4165" />
  <sodipodi:namedview
     id="base"
     pagecolor="#ffffff"
     bordercolor="#666666"
     borderopacity="1.0"
     inkscape:pageopacity="0.0"
     inkscape:pageshadow="2"
     inkscape:zoom="1"
     inkscape:cx="4.8888889"
     inkscape:cy="11.714765"
     inkscape:document-units="px"
     inkscape:current-layer="layer1"
     showgrid="false"
     units="px"
     inkscape:window-width="1600"
     inkscape:window-height="846"
     inkscape:window-x="0"
     inkscape:window-y="26"
     inkscape:window-maximized="1" />
  <metadata
     id="metadata4168">
    <rdf:RDF>
      <cc:Work
         rdf:about="">
        <dc:format>image/svg+xml</dc:format>
        <dc:type
           rdf:resource="http://purl.org/dc/dcmitype/StillImage" />
        <dc:title></dc:title>
      </cc:Work>
    </rdf:RDF>
  </metadata>
  <g
     inkscape:label="Layer 1"
     inkscape:groupmode="layer"
     id="layer1"
     transform="translate(0,-1020.3622)">
    <path
       style="opacity:1;fill:#31afe1;fill-opacity:1;stroke:none;stroke-width:4;stroke-linecap:round;stroke-linejoin:round;stroke-miterlimit:4;stroke-dasharray:none;stroke-opacity:1"
       d="M 15.980469 2 A 1.3737145 1.3737145 0 0 0 15.029297 2.4023438 L 11 6.4316406 L 11 19.378906 L 22.472656 7.90625 L 16.970703 2.4023438 A 1.3737145 1.3737145 0 0 0 15.980469 2 z M 8 9.4316406 L 2.4023438 15.029297 A 1.3737145 1.3737145 0 0 0 2.4023438 16.970703 L 7.90625 22.472656 L 8 22.378906 L 8 9.4316406 z M 24.59375 10.027344 L 18.289062 16.332031 L 24.261719 22.306641 L 29.597656 16.970703 A 1.3737145 1.3737145 0 0 0 29.597656 15.029297 L 24.59375 10.027344 z M 16.167969 18.453125 L 11 23.621094 L 11 25.568359 L 15.029297 29.597656 A 1.3737145 1.3737145 0 0 0 16.970703 29.597656 L 22.140625 24.427734 L 16.167969 18.453125 z "
       transform="translate(0,1020.3622)"
       id="rect4809" />
    <path
       style="opacity:0.3;fill:#000000;fill-opacity:1;stroke:none;stroke-width:4;stroke-linecap:round;stroke-linejoin:round;stroke-miterlimit:4;stroke-dasharray:none;stroke-opacity:1"
       d="M 21.972656 7.40625 L 11 18.378906 L 11 19.378906 L 22.472656 7.90625 L 21.972656 7.40625 z M 2.0957031 15.5 A 1.3737145 1.3737145 0 0 0 2.4023438 16.970703 L 7.90625 22.472656 L 8 22.378906 L 8 21.378906 L 7.90625 21.472656 L 2.4023438 15.970703 A 1.3737145 1.3737145 0 0 1 2.0957031 15.5 z M 29.904297 15.5 A 1.3737145 1.3737145 0 0 1 29.597656 15.970703 L 24.261719 21.306641 L 18.789062 15.832031 L 18.289062 16.332031 L 24.261719 22.306641 L 29.597656 16.970703 A 1.3737145 1.3737145 0 0 0 29.904297 15.5 z M 21.640625 23.927734 L 16.970703 28.597656 A 1.3737145 1.3737145 0 0 1 15.029297 28.597656 L 11 24.568359 L 11 25.568359 L 15.029297 29.597656 A 1.3737145 1.3737145 0 0 0 16.970703 29.597656 L 22.140625 24.427734 L 21.640625 23.927734 z "
       transform="translate(0,1020.3622)"
       id="path4824" />
    <path
       style="opacity:0.2;fill:#ffffff;fill-opacity:1;stroke:none;stroke-width:4;stroke-linecap:round;stroke-linejoin:round;stroke-miterlimit:4;stroke-dasharray:none;stroke-opacity:1"
       d="M 15.980469 2 A 1.3737145 1.3737145 0 0 0 15.029297 2.4023438 L 11 6.4316406 L 11 7.4316406 L 15.029297 3.4023438 A 1.3737145 1.3737145 0 0 1 15.980469 3 A 1.3737145 1.3737145 0 0 1 16.970703 3.4023438 L 21.972656 8.40625 L 22.472656 7.90625 L 16.970703 2.4023438 A 1.3737145 1.3737145 0 0 0 15.980469 2 z M 8 9.4316406 L 2.4023438 15.029297 A 1.3737145 1.3737145 0 0 0 2.0957031 16.5 A 1.3737145 1.3737145 0 0 1 2.4023438 16.029297 L 8 10.431641 L 8 9.4316406 z M 24.59375 10.027344 L 18.289062 16.332031 L 18.789062 16.832031 L 24.59375 11.027344 L 29.597656 16.029297 A 1.3737145 1.3737145 0 0 1 29.904297 16.501953 A 1.3737145 1.3737145 0 0 0 29.597656 15.029297 L 24.59375 10.027344 z M 16.167969 18.453125 L 11 23.621094 L 11 24.621094 L 16.167969 19.453125 L 21.640625 24.927734 L 22.140625 24.427734 L 16.167969 18.453125 z "
       transform="translate(0,1020.3622)"
       id="path4829" />
  </g>
</svg>

<?xml version="1.0" encoding="UTF-8" standalone="no"?>
<!-- Created with Inkscape (http://www.inkscape.org/) -->
<svg id="svg4163" xmlns:rdf="http://www.w3.org/1999/02/22-rdf-syntax-ns#" xmlns="http://www.w3.org/2000/svg" height="32" width="32" version="1.1" xmlns:cc="http://creativecommons.org/ns#" xmlns:dc="http://purl.org/dc/elements/1.1/" viewBox="0 0 32.000001 32.000001">
 <metadata id="metadata4168">
  <rdf:RDF>
   <cc:Work rdf:about="">
    <dc:format>image/svg+xml</dc:format>
    <dc:type rdf:resource="http://purl.org/dc/dcmitype/StillImage"/>
    <dc:title/>
   </cc:Work>
  </rdf:RDF>
 </metadata>
 <g id="layer1" transform="translate(0 -1020.4)">
  <path id="rect4809" d="m15.98 2a1.3737 1.3737 0 0 0 -0.951 0.4023l-4.029 4.0293v12.947l11.473-11.473-5.502-5.5037a1.3737 1.3737 0 0 0 -0.991 -0.4023zm-7.98 7.4316l-5.5977 5.5974a1.3737 1.3737 0 0 0 0 1.942l5.5039 5.502 0.0938-0.094v-12.947zm16.594 0.5954l-6.305 6.305 5.973 5.975 5.336-5.336a1.3737 1.3737 0 0 0 0 -1.942l-5.004-5.002zm-8.426 8.426l-5.168 5.168v1.947l4.029 4.03a1.3737 1.3737 0 0 0 1.942 0l5.17-5.17-5.973-5.975z" transform="translate(0 1020.4)" fill="#31afe1"/>
  <path id="path4824" opacity=".3" d="m21.973 7.4062l-10.973 10.973v1l11.473-11.473-0.5-0.4998zm-19.877 8.0938a1.3737 1.3737 0 0 0 0.3066 1.471l5.5039 5.502 0.0938-0.094v-1l-0.0938 0.094-5.5039-5.502a1.3737 1.3737 0 0 1 -0.3066 -0.471zm27.808 0a1.3737 1.3737 0 0 1 -0.306 0.471l-5.336 5.336-5.473-5.475-0.5 0.5 5.973 5.975 5.336-5.336a1.3737 1.3737 0 0 0 0.306 -1.471zm-8.263 8.428l-4.67 4.67a1.3737 1.3737 0 0 1 -1.942 0l-4.029-4.03v1l4.029 4.03a1.3737 1.3737 0 0 0 1.942 0l5.17-5.17-0.5-0.5z" transform="translate(0 1020.4)"/>
  <path id="path4829" opacity=".2" d="m15.98 2a1.3737 1.3737 0 0 0 -0.951 0.4023l-4.029 4.0293v1l4.029-4.0293a1.3737 1.3737 0 0 1 0.951 -0.4023 1.3737 1.3737 0 0 1 0.991 0.4023l5.002 5.0039 0.5-0.5-5.502-5.5039a1.3737 1.3737 0 0 0 -0.991 -0.4023zm-7.98 7.4316l-5.5977 5.5974a1.3737 1.3737 0 0 0 -0.3066 1.471 1.3737 1.3737 0 0 1 0.3066 -0.471l5.5977-5.597v-1.0004zm16.594 0.5954l-6.305 6.305 0.5 0.5 5.805-5.805 5.004 5.002a1.3737 1.3737 0 0 1 0.306 0.473 1.3737 1.3737 0 0 0 -0.306 -1.473l-5.004-5.002zm-8.426 8.426l-5.168 5.168v1l5.168-5.168 5.473 5.475 0.5-0.5-5.973-5.975z" transform="translate(0 1020.4)" fill="#fff"/>
 </g>
</svg>
